X: 36752
T: Sheila Coyle's
R: reel
M: 4/4
K: Dmajor
|:FA ~A2 FADF|ADFA BAGF|GBBA ~B2 Bd|ABdf efdA|
FA ~A2 FADF|ADFA BAGF|GB ~B2 AF ~F2|1 EFGE FA D2:|2 EFGE FADd:|
|:effe ~f2 fe|defd BAFA|ce ~e2 fe ~e2|~B2 BA BAFA|
effe ~f2 fe|defd BAFA|GB ~B2 AF ~F2|1 EFGE FADd:|2 EFGE FAD2||

